X: 1
T: Her Long Dark Hair Flowing Down Her Back
R: hornpipe
M: 4/4
L: 1/8
K: Dmaj
|:de|fedf e2dB|AF~F2 ABde|fedf e2de|fbba b2ag|
fedf e2dB|AF~F2 ABde|fedf edBA|B2BA B2:|
|:de|faab afef|dBAB d3e|fbba b2ag|fedf ~e2de|
faab afef|dBAB d3e|fedf edBA|B2BA B2:|


Tune 1263	Setting 28805

